img/iconpics/power-supply.svg

<svg width="50" height="50" viewBox="0 0 50 50" fill="none" xmlns="http://www.w3.org/2000/svg">
<path d="M50 27.8482V22.1518C50 21.0351 49.0947 20.1299 47.9781 20.1299H45.7994C44.9282 20.1299 44.1553 19.5717 43.8815 18.7448C43.5764 17.8235 43.2058 16.9322 42.7752 16.0763C42.3831 15.2967 42.5332 14.3542 43.1502 13.7371L44.6916 12.1957C45.4813 11.406 45.4813 10.1259 44.6916 9.33622L40.6637 5.30825C39.874 4.51861 38.5938 4.51861 37.8042 5.30825L36.2628 6.8497C35.6457 7.4668 34.7032 7.6168 33.9236 7.22465C33.0677 6.79406 32.1763 6.42344 31.2551 6.11841C30.4282 5.84457 29.87 5.07163 29.87 4.2005V2.02193C29.87 0.905231 28.9648 0 27.8481 0H22.1517C21.035 0 20.1298 0.905231 20.1298 2.02193V4.2006C20.1298 5.07173 19.5716 5.84467 18.7446 6.11851C17.8234 6.42354 16.9321 6.79417 16.0761 7.22475C15.2966 7.6169 14.3541 7.4668 13.737 6.8498L12.1956 5.30835C11.4059 4.51871 10.1257 4.51871 9.3361 5.30835L5.30833 9.33632C4.51869 10.126 4.51869 11.4061 5.30833 12.1958L6.84978 13.7372C7.46678 14.3543 7.61688 15.2968 7.22473 16.0764C6.79415 16.9323 6.42352 17.8236 6.11849 18.7449C5.92493 19.3293 5.48218 19.7794 4.93167 19.9932C4.7032 20.0819 4.55672 20.2305 4.30119 20.2305H2.12252C1.00582 20.2305 0.100586 21.1357 0.100586 22.2524V27.7476C0.100586 28.8643 1.00582 29.7695 2.12252 29.7695H4.30119C5.17232 29.7695 5.94525 30.4283 6.2191 31.2552C6.52413 32.1765 6.89475 33.0677 7.32533 33.9237C7.71749 34.7033 7.56739 35.6458 6.95038 36.2629L5.50954 37.8043C4.7199 38.594 4.7199 39.8741 5.50954 40.6638L9.3363 44.4905C10.1259 45.2802 11.4061 45.2802 12.1958 44.4905L13.7372 42.9491C14.3542 42.332 15.2968 42.182 16.0763 42.5741C16.9323 43.0047 18.0248 43.476 18.9461 43.781C19.773 44.0548 20.3312 44.8278 20.3312 45.6989V47.8776C20.3312 48.9943 21.2364 49.8995 22.3531 49.8995H27.7477C28.8644 49.8995 29.7696 48.9943 29.7696 47.8776V45.6989C29.7696 45.4434 29.9182 45.2969 30.0069 45.0684C30.2207 44.5179 30.6709 44.0751 31.2552 43.8816C32.1764 43.5766 33.0678 43.2059 33.9237 42.7754C34.7033 42.3832 35.6458 42.5333 36.2629 43.1503L37.8043 44.6917C38.5939 45.4814 39.8741 45.4814 40.6638 44.6917L44.6917 40.6638C45.4814 39.8741 45.4814 38.594 44.6917 37.8043L43.1503 36.2629C42.5333 35.6458 42.3832 34.7033 42.7753 33.9237C43.2059 33.0678 43.5765 32.1765 43.8816 31.2552C44.1554 30.4283 44.9284 29.8701 45.7995 29.8701H47.9781C49.0947 29.8701 50 28.9649 50 27.8482Z" fill="#B6C4CF"/>
<path d="M30.007 45.0684C29.9185 45.2967 29.8702 45.5442 29.8702 45.7998V47.9778C29.8702 49.0945 28.9648 50 27.8481 50H22.1519C21.0352 50 20.1298 49.0945 20.1298 47.9778V45.7998C20.1298 44.9285 19.5714 44.1549 18.7445 43.8812C17.8239 43.5764 16.9326 43.2062 16.0765 42.7756C15.2968 42.3833 14.3541 42.5332 13.7374 43.1499L12.1962 44.6911C11.4064 45.4808 10.1258 45.4808 9.33602 44.6911L5.30785 40.6639C4.51911 39.8742 4.51911 38.5935 5.30785 37.8038L6.8501 36.2625C7.4668 35.6458 7.6167 34.7032 7.22435 33.9235C6.79376 33.0674 6.42354 32.176 6.11871 31.2555C5.84507 30.4285 5.07143 29.8702 4.2002 29.8702H2.02213C0.905433 29.8702 0 28.9648 0 27.8481V22.1519C0 21.0352 0.905433 20.1297 2.02213 20.1297H4.2002C4.45573 20.1297 4.70322 20.0815 4.93159 19.9929C4.92958 20.1187 4.92857 20.2454 4.92857 20.3722C4.92857 34.013 15.9869 45.0714 29.6278 45.0714C29.7545 45.0714 29.8813 45.0704 30.007 45.0684Z" fill="#9FACBA"/>
<path d="M25 41.5996C34.1677 41.5996 41.5996 34.1677 41.5996 25C41.5996 15.8323 34.1677 8.40039 25 8.40039C15.8323 8.40039 8.40039 15.8323 8.40039 25C8.40039 34.1677 15.8323 41.5996 25 41.5996Z" fill="#9FACBA"/>
<path d="M25 38.0784C32.223 38.0784 38.0784 32.223 38.0784 25C38.0784 17.7769 32.223 11.9215 25 11.9215C17.7769 11.9215 11.9215 17.7769 11.9215 25C11.9215 32.223 17.7769 38.0784 25 38.0784Z" fill="#F8F7F7"/>
</svg>

<svg width="50" height="50" fill="none" xmlns="http://www.w3.org/2000/svg"><path d="M50 27.848v-5.696a2.022 2.022 0 00-2.022-2.022H45.8a2.02 2.02 0 01-1.917-1.385 19.757 19.757 0 00-1.107-2.669 2.022 2.022 0 01.375-2.339l1.542-1.541c.79-.79.79-2.07 0-2.86l-4.028-4.028c-.79-.79-2.07-.79-2.86 0L36.263 6.85a2.022 2.022 0 01-2.34.375 19.754 19.754 0 00-2.668-1.107A2.02 2.02 0 0129.87 4.2V2.022A2.022 2.022 0 0027.848 0h-5.696a2.022 2.022 0 00-2.022 2.022V4.2a2.02 2.02 0 01-1.385 1.918 19.76 19.76 0 00-2.669 1.106 2.022 2.022 0 01-2.339-.375l-1.541-1.542c-.79-.79-2.07-.79-2.86 0L5.308 9.336c-.79.79-.79 2.07 0 2.86l1.542 1.541c.617.617.767 1.56.375 2.34a19.75 19.75 0 00-1.107 2.668 2.02 2.02 0 01-1.186 1.248c-.229.089-.375.238-.63.238h-2.18a2.022 2.022 0 00-2.021 2.021v5.496c0 1.116.905 2.021 2.022 2.021H4.3c.871 0 1.644.66 1.918 1.486.305.921.676 1.813 1.106 2.669.392.78.242 1.722-.375 2.339l-1.44 1.541c-.79.79-.79 2.07 0 2.86l3.826 3.826c.79.79 2.07.79 2.86 0l1.541-1.54a2.022 2.022 0 012.34-.376c.855.43 1.948.902 2.87 1.207a2.02 2.02 0 011.384 1.918v2.179c0 1.116.905 2.022 2.022 2.022h5.395a2.022 2.022 0 002.022-2.022v-2.18c0-.255.148-.401.237-.63a2.02 2.02 0 011.248-1.186 19.762 19.762 0 002.669-1.107 2.022 2.022 0 012.339.375l1.541 1.542c.79.79 2.07.79 2.86 0l4.028-4.028c.79-.79.79-2.07 0-2.86l-1.542-1.541a2.022 2.022 0 01-.375-2.34c.43-.855.802-1.747 1.107-2.668A2.02 2.02 0 0145.8 29.87h2.178A2.022 2.022 0 0050 27.848z" fill="#B6C4CF"/><path d="M30.007 45.068a2.023 2.023 0 00-.137.732v2.178A2.022 2.022 0 0127.848 50h-5.696a2.022 2.022 0 01-2.022-2.022V45.8c0-.871-.559-1.645-1.386-1.919a19.757 19.757 0 01-2.668-1.105 2.022 2.022 0 00-2.339.374l-1.54 1.541c-.79.79-2.071.79-2.861 0l-4.028-4.027a2.024 2.024 0 010-2.86l1.542-1.541c.617-.617.767-1.56.374-2.34a19.83 19.83 0 01-1.105-2.668A2.02 2.02 0 004.2 29.87H2.022A2.022 2.022 0 010 27.848v-5.696c0-1.117.905-2.022 2.022-2.022H4.2c.256 0 .503-.049.732-.137a23.88 23.88 0 00-.003.38c0 13.64 11.058 24.698 24.699 24.698.127 0 .253 0 .379-.003z" fill="#9FACBA"/><path d="M25 41.6c9.168 0 16.6-7.432 16.6-16.6 0-9.168-7.432-16.6-16.6-16.6-9.168 0-16.6 7.432-16.6 16.6 0 9.168 7.432 16.6 16.6 16.6z" fill="#9FACBA"/><path d="M25 38.078c7.223 0 13.078-5.855 13.078-13.078 0-7.223-5.855-13.079-13.078-13.079-7.223 0-13.079 5.856-13.079 13.079 0 7.223 5.856 13.078 13.079 13.078z" fill="#F8F7F7"/></svg>
